X:230 
T:Sporting Irishman, The 
B:WSGM.112
F:file ID wsgm/230sij
S:"Clinton's Irish Melodies" 1840
Z:Kinder/Black
N:Source has |d//e//f//g//| as the pickup measure of part 2.
My choice was |g|.
%Q:160
M:6/8
L:1/8
R:jig
K:D
F/E/|D>ED D2 d|BAG FGE|AdB AFA|EFE E2 A|
DED D2 d|BAG FGE|AdB AFA|DED D2:|
g|a3 b3|a>ba afd|gag faf|ede fdB|
a3 f3|ede fdB|AFA dAF|D>ED D2:|

